wp-content/themes/sayenko-erickson/public/images/careers/medical-insurance.svg

<?xml version="1.0" encoding="UTF-8"?>
<svg width="67px" height="64px" viewBox="0 0 67 64" version="1.1" xmlns="http://www.w3.org/2000/svg" xmlns:xlink="http://www.w3.org/1999/xlink">
    <!-- Generator: Sketch 62 (91390) - https://sketch.com -->
    <title>medical-insurance</title>
    <desc>Created with Sketch.</desc>
    <g id="Mockups" stroke="none" stroke-width="1" fill="none" fill-rule="evenodd">
        <g id="Career-Index" transform="translate(-471.000000, -906.000000)" fill="#E9731F" fill-rule="nonzero">
            <g id="medical-insurance" transform="translate(471.000000, 906.000000)">
                <path d="M1.16639957,34.4530786 C1.74988523,34.5285145 2.29908168,34.1593355 2.44823906,33.5901371 C2.67397543,32.7340536 3.47233906,30.2915293 4.46557898,29.2119953 C5.77713551,27.9495864 7.52530625,27.2415172 9.3460554,27.2363739 C11.1639473,27.2272301 12.9126895,27.9330134 14.2156739,29.2005656 C15.5169438,30.5892727 16.2055824,32.2814379 16.2055824,34.0953293 C16.2055824,34.7416781 16.7296335,35.2657293 17.3759824,35.2657293 C18.0223313,35.2657293 18.5463824,34.7416781 18.5463824,34.0953293 C18.5172366,32.2677223 19.2310207,30.5064074 20.5231469,29.2137098 C21.8158446,27.9210121 23.5771594,27.2077996 25.4047665,27.2363739 C27.2232297,27.2272301 28.9719719,27.9330134 30.2749563,29.2011371 C31.5756547,30.5898442 32.2631504,32.2820094 32.2631504,34.0964723 L32.2631504,58.1965398 C32.2631504,60.0138602 30.7904352,61.4871469 28.9731148,61.4871469 C27.1557946,61.4871469 25.6830793,60.0138602 25.6830793,58.1965398 C25.6830793,57.5501911 25.1590281,57.0261398 24.5126793,57.0261398 C23.8657589,57.0261398 23.3422793,57.5501911 23.3422793,58.1965398 C23.3422793,61.3065578 25.8630969,63.8279469 28.9731148,63.8279469 C32.0831328,63.8279469 34.6039504,61.3065578 34.6039504,58.1965398 L34.6039504,34.0964723 C34.5753761,32.2682938 35.2885886,30.506979 36.5812864,29.2148527 C37.8739839,27.9221551 39.6352989,27.208371 41.4629058,27.2375168 C43.2813692,27.228373 45.0301114,27.9335848 46.3330957,29.2017085 C47.6343656,30.5904156 48.3224328,32.2825808 48.3224328,34.0964723 C48.3224328,34.742821 48.8464839,35.2668723 49.4928328,35.2668723 C50.1391817,35.2668723 50.6632328,34.742821 50.6632328,34.0964723 C50.6346585,32.2682938 51.347871,30.506979 52.6405688,29.2142813 C53.9332665,27.9221551 55.6945813,27.208371 57.5221884,27.2375168 C59.3400801,27.228373 61.0888223,27.9335848 62.3912352,29.2011371 C63.3861895,30.2692415 64.1919824,32.7306246 64.4194332,33.5912801 C64.5697335,34.1599071 65.1183585,34.5290859 65.7018442,34.45365 C66.2847582,34.3782141 66.7219438,33.8815942 66.7219438,33.2935366 C66.7190864,19.8299364 58.6080085,7.69275114 46.1696511,2.53967656 C33.7312937,-2.61339801 19.4133241,0.232022729 9.89010852,9.74895199 C3.62835426,15.9804176 0.119440198,24.4583884 0.146146925,33.2923938 C0.146146925,33.8810227 0.582914062,34.3776426 1.16639957,34.4530786 Z M11.5451273,11.4039707 C19.6310598,3.32032415 31.5139344,0.350891479 42.4515739,3.68150227 C53.3892134,7.01154176 61.6008723,16.0998578 63.8090879,27.318096 C62.0889199,25.7545148 59.8464152,24.8904304 57.5216168,24.8955739 C55.0950942,24.8955739 52.8434457,25.8082344 51.0101239,27.5335457 C50.9924078,27.5495473 50.9758348,27.5666918 50.9598332,27.5838364 C50.3900634,28.1850379 49.8974437,28.8548176 49.4922614,29.5771739 C49.087079,28.8548176 48.5944594,28.1850379 48.0252609,27.5838364 C48.0172602,27.5752641 48.0086879,27.5666918 48.0006871,27.5581196 C46.2565168,25.8448094 43.9077161,24.8881446 41.4629058,24.8955739 C39.0363832,24.8955739 36.7847348,25.8076629 34.9514129,27.5335457 C34.9336969,27.5495473 34.9171239,27.5661203 34.9011223,27.5832648 C34.3319239,28.1850379 33.8387328,28.854246 33.4335504,29.5771739 C33.0289395,28.8548176 32.5357484,28.1850379 31.96655,27.5838364 C31.9585491,27.5752641 31.949977,27.5666918 31.9419761,27.5581196 C30.1978058,25.8448094 27.8490051,24.8881446 25.4041949,24.8955739 C22.9776723,24.8955739 20.7260239,25.8076629 18.892702,27.5335457 C18.8755574,27.5495473 18.8584129,27.5661203 18.8424114,27.5832648 C18.2732129,28.1850379 17.7805933,28.854246 17.3754109,29.5766023 C16.9702286,28.854246 16.4770375,28.1844665 15.9078391,27.5832648 C15.8998384,27.5746926 15.8912661,27.5661203 15.8832652,27.5581196 C12.342348,24.0977817 6.71779886,23.9977719 3.05629844,27.3300973 C4.22726989,21.2912219 7.18470156,15.7426801 11.5451273,11.4039707 Z" id="Shape"></path>
                <path d="M25.3870504,17.8714594 L29.9223504,17.8714594 L29.9223504,22.2604594 C29.9223504,22.9068082 30.4464016,23.4308594 31.0927504,23.4308594 L35.7743504,23.4308594 C36.4212707,23.4308594 36.9447504,22.9068082 36.9447504,22.2604594 L36.9447504,17.8714594 L41.3337504,17.8714594 C41.9806707,17.8714594 42.5041504,17.3474082 42.5041504,16.7010594 L42.5041504,11.8731594 C42.5041504,11.2268105 41.9806707,10.7027594 41.3337504,10.7027594 L36.9447504,10.7027594 L36.9447504,6.31375938 C36.9447504,5.66741051 36.4212707,5.14335938 35.7743504,5.14335938 L31.0927504,5.14335938 C30.4464016,5.14335938 29.9223504,5.66741051 29.9223504,6.31375938 L29.9223504,10.7027594 L25.3870504,10.7027594 C24.7407016,10.7027594 24.2166504,11.2268105 24.2166504,11.8731594 L24.2166504,16.7010594 C24.2166504,17.3474082 24.7407016,17.8714594 25.3870504,17.8714594 L25.3870504,17.8714594 Z M26.5574504,13.0435594 L31.0927504,13.0435594 C31.7396707,13.0435594 32.2631504,12.5195082 32.2631504,11.8731594 L32.2631504,7.48415938 L34.6039504,7.48415938 L34.6039504,11.8731594 C34.6039504,12.5195082 35.1280016,13.0435594 35.7743504,13.0435594 L40.1633504,13.0435594 L40.1633504,15.5306594 L35.7743504,15.5306594 C35.1280016,15.5306594 34.6039504,16.0547105 34.6039504,16.7010594 L34.6039504,21.0900594 L32.2631504,21.0900594 L32.2631504,16.7010594 C32.2631504,16.0547105 31.7396707,15.5306594 31.0927504,15.5306594 L26.5574504,15.5306594 L26.5574504,13.0435594 Z" id="Shape"></path>
            </g>
        </g>
    </g>
</svg>

<svg width="67" height="64" viewBox="0 0 67 64" version="1.1" xmlns="http://www.w3.org/2000/svg"><g id="Mockups" stroke="none" stroke-width="1" fill="none" fill-rule="evenodd"><g id="Career-Index" transform="translate(-471 -906)" fill="#E9731F" fill-rule="nonzero"><g id="medical-insurance" transform="translate(471 906)"><path d="M1.166 34.453a1.17 1.17 0 0 0 1.282-.863c.226-.856 1.024-3.298 2.018-4.378a7.067 7.067 0 0 1 4.88-1.976 6.934 6.934 0 0 1 4.87 1.965c1.3 1.388 1.99 3.08 1.99 4.894a1.17 1.17 0 0 0 2.34 0 6.754 6.754 0 0 1 6.859-6.859 6.933 6.933 0 0 1 4.87 1.965c1.3 1.389 1.988 3.081 1.988 4.895v24.1a3.29 3.29 0 1 1-6.58 0 1.17 1.17 0 0 0-2.34 0 5.631 5.631 0 1 0 11.261 0v-24.1a6.752 6.752 0 0 1 6.859-6.858 6.932 6.932 0 0 1 4.87 1.964c1.301 1.388 1.99 3.08 1.99 4.894a1.17 1.17 0 0 0 2.34 0 6.755 6.755 0 0 1 6.86-6.858A6.931 6.931 0 0 1 62.39 29.2c.995 1.068 1.801 3.53 2.028 4.39a1.171 1.171 0 0 0 2.303-.297A33.297 33.297 0 0 0 9.89 9.749 33.075 33.075 0 0 0 .146 33.292a1.17 1.17 0 0 0 1.02 1.161zm10.38-23.049a30.959 30.959 0 0 1 52.263 15.914 9.317 9.317 0 0 0-6.287-2.422c-2.427 0-4.679.912-6.512 2.638a10.032 10.032 0 0 0-1.518 2.044 10.052 10.052 0 0 0-1.467-1.994l-.024-.026a9.289 9.289 0 0 0-6.538-2.662c-2.427 0-4.678.912-6.512 2.638a10.058 10.058 0 0 0-1.518 2.044 10.03 10.03 0 0 0-1.466-1.994l-.025-.026a9.289 9.289 0 0 0-6.538-2.662c-2.426 0-4.678.912-6.511 2.638a10.068 10.068 0 0 0-1.517 2.043 10.054 10.054 0 0 0-1.493-2.019 9.35 9.35 0 0 0-12.827-.228 30.716 30.716 0 0 1 8.49-15.926z" id="Shape"/><path d="M25.387 17.871h4.535v4.39c0 .646.524 1.17 1.17 1.17h4.682a1.17 1.17 0 0 0 1.17-1.17v-4.39h4.39a1.17 1.17 0 0 0 1.17-1.17v-4.828a1.17 1.17 0 0 0-1.17-1.17h-4.39v-4.39a1.17 1.17 0 0 0-1.17-1.17h-4.681a1.17 1.17 0 0 0-1.17 1.17v4.39h-4.536a1.17 1.17 0 0 0-1.17 1.17v4.828c0 .646.524 1.17 1.17 1.17zm1.17-4.827h4.536a1.17 1.17 0 0 0 1.17-1.17v-4.39h2.341v4.39c0 .646.524 1.17 1.17 1.17h4.39v2.487h-4.39a1.17 1.17 0 0 0-1.17 1.17v4.39h-2.34V16.7a1.17 1.17 0 0 0-1.171-1.17h-4.536v-2.487z" id="Shape"/></g></g></g></svg>
